pix/t/block_to_dock_rtl.svg

<!DOCTYPE svg PUBLIC "-//W3C//DTD SVG 1.1//EN" "http://www.w3.org/Graphics/SVG/1.1/DTD/svg11.dtd" [
	<!ENTITY ns_flows "http://ns.adobe.com/Flows/1.0/">
]><svg xmlns="http://www.w3.org/2000/svg" width="12" height="12" viewBox="0 0 12 12" preserveAspectRatio="xMinYMid meet" overflow="visible"><path d="M11 0H1C.5 0 0 .5 0 1v10c0 .5.5 1 1 1h10c.5 0 1-.5 1-1V1c0-.5-.5-1-1-1zm0 10c0 .5-.5 1-1 1H2c-.5 0-1-.5-1-1V4c0-.5.5-1 1-1h8c.5 0 1 .5 1 1v6zM8.1 7.4l-.7.6-1.8 1.9c-.2.2-.5.2-.7 0l-.7-.7c-.2-.2-.2-.6 0-.8L5.6 7 4.2 5.5c-.2-.2-.2-.5 0-.7l.7-.7c.2-.2.5-.2.7 0l2.5 2.5c.2.2.2.6 0 .8z" fill="#999"/></svg>

<?xml version="1.0" encoding="utf-8"?>
<!-- Generator: Adobe Illustrator 15.1.0, SVG Export Plug-In  -->
<!DOCTYPE svg PUBLIC "-//W3C//DTD SVG 1.1//EN" "http://www.w3.org/Graphics/SVG/1.1/DTD/svg11.dtd" [
	<!ENTITY ns_flows "http://ns.adobe.com/Flows/1.0/">
]>
<svg version="1.1"
	 xmlns="http://www.w3.org/2000/svg" xmlns:xlink="http://www.w3.org/1999/xlink" xmlns:a="http://ns.adobe.com/AdobeSVGViewerExtensions/3.0/"
	 x="0px" y="0px" width="12px" height="12px" viewBox="0 0 12 12" style="overflow:visible;enable-background:new 0 0 12 12;"
	 xml:space="preserve" preserveAspectRatio="xMinYMid meet">
<defs>
</defs>
<path style="fill:#999999;" d="M11,0H1C0.5,0,0,0.5,0,1v10c0,0.5,0.5,1,1,1h10c0.5,0,1-0.5,1-1V1C12,0.5,11.5,0,11,0z M11,10
	c0,0.5-0.5,1-1,1H2c-0.5,0-1-0.5-1-1V4c0-0.5,0.5-1,1-1h8c0.5,0,1,0.5,1,1V10z M8.1,7.4L7.4,8c0,0,0,0,0,0L5.6,9.9
	c-0.2,0.2-0.5,0.2-0.7,0L4.2,9.2C4,9,4,8.6,4.2,8.4L5.6,7L4.2,5.5C4,5.3,4,5,4.2,4.8l0.7-0.7c0.2-0.2,0.5-0.2,0.7,0l2.5,2.5
	C8.3,6.8,8.3,7.2,8.1,7.4z"/>
</svg>
